material/.icons/material/share-all.svg

<svg xmlns="http://www.w3.org/2000/svg" viewBox="0 0 24 24"><path d="M11 9V5l7 7-7 7v-4.1c-5 0-8.5 1.6-11 5.1 1-5 4-10 11-11m6-1V5l7 7-7 7v-3l4-4-4-4z"/></svg>

<?xml version="1.0" encoding="UTF-8"?><!DOCTYPE svg PUBLIC "-//W3C//DTD SVG 1.1//EN" "http://www.w3.org/Graphics/SVG/1.1/DTD/svg11.dtd"><svg xmlns="http://www.w3.org/2000/svg" xmlns:xlink="http://www.w3.org/1999/xlink" version="1.1" id="mdi-share-all" width="24" height="24" viewBox="0 0 24 24"><path d="M11 9V5L18 12L11 19V14.9C6 14.9 2.5 16.5 0 20C1 15 4 10 11 9M17 8V5L24 12L17 19V16L21 12L17 8Z" /></svg>
